packages/ui-icons/svg/Line/star.svg

<svg viewBox="0 0 1920 1920" version="1.1" xmlns="http://www.w3.org/2000/svg">
    <path d="M1915.91828,737.475294 C1904.96299,703.931765 1873.90416,681.343529 1838.55357,681.343529 L1226.52534,681.343529 L1037.46181,99.2447059 L1037.46181,99.1317647 C1026.39357,65.5882353 995.33475,43 959.984162,43 C924.746515,43 893.57475,65.5882353 882.619456,99.2447059 L693.442985,681.343529 L81.4147498,681.343529 C46.0641616,681.343529 15.0053381,703.931765 4.05004394,737.475294 C-6.90525018,771.018824 4.84063217,807.611765 33.527691,828.505882 L528.77475,1188.33647 L339.598279,1770.54824 C328.642985,1804.20471 340.727691,1840.79765 369.41475,1861.46588 C383.645338,1871.74353 400.360632,1876.95297 417.075926,1876.95297 C433.79122,1876.95297 450.506515,1871.74353 464.850044,1861.35294 L959.984162,1501.63529 L1455.00534,1861.35294 C1483.57946,1882.13412 1522.0924,1882.13412 1550.66651,1861.46588 C1579.35357,1840.79765 1591.32534,1804.20471 1580.37004,1770.43529 L1391.19357,1188.33647 L1886.55357,828.505882 C1915.12769,807.611765 1926.98651,771.018824 1915.91828,737.475294" stroke="none" stroke-width="1" fill-rule="evenodd"/>
</svg>

<svg viewBox="0 0 1920 1920" version="1.1" xmlns="http://www.w3.org/2000/svg">
    <path d="M1915.918 737.475c-10.955-33.543-42.014-56.131-77.364-56.131h-612.029l-189.063-582.1v-.112C1026.394 65.588 995.335 43 959.984 43c-35.237 0-66.41 22.588-77.365 56.245L693.443 681.344H81.415c-35.35 0-66.41 22.588-77.365 56.131-10.955 33.544.79 70.137 29.478 91.03l495.247 359.831-189.177 582.212c-10.955 33.657 1.13 70.25 29.817 90.918 14.23 10.278 30.946 15.487 47.66 15.487 16.716 0 33.432-5.21 47.775-15.6l495.134-359.718 495.021 359.718c28.574 20.781 67.087 20.781 95.662.113 28.687-20.668 40.658-57.261 29.703-91.03l-189.176-582.1 495.36-359.83c28.574-20.894 40.433-57.487 29.364-91.03" stroke="none" stroke-width="1" fill-rule="evenodd"/>
</svg>
